X: 102
T: POLKA: Timmy O'Connor's
T: John Brosnan's No. 1
C: C: Trad.; S: Timmy O'Connor
C: Set Leaders: Anton, Sophie, Tania
Z: Anton Zille ed.; slainte at The Session
N: https://thesession.org/members/26966/sets/92004
R: Polka
M: 2/4
L: 1/8
Q: 1/4=140
K: Dmaj
D>E FA|Bc d2|B>A FA|B/c/B/A/ FE|
D>E FA|Bc dc/d/|BA FE|1 D2 DA,:|2 D2 D2||
d>c BA|Bc d2|B>A FA|B/c/B/A/ FA|
d>c BA|Bc dc/d/|BA FE|D2 DA|
d>c BA|Bc d2|B>A FA|B/c/B/A/ FE|
D>E FA|Bc dc/d/|BA FE|D2 DA,||

